packages/icons/src/line-height.svg

<svg width="15" height="15" viewBox="0 0 15 15" fill="none" xmlns="http://www.w3.org/2000/svg">
  <path
    fill-rule="evenodd"
    clip-rule="evenodd"
    d="M3.78233 2.21713C3.70732 2.14212 3.60557 2.09998 3.49949 2.09998C3.3934 2.09998 3.29166 2.14212 3.21664 2.21713L1.21664 4.21713C1.06044 4.37334 1.06044 4.62661 1.21664 4.78282C1.37285 4.93903 1.62612 4.93903 1.78233 4.78282L3.09949 3.46566L3.09949 11.5343L1.78233 10.2171C1.62612 10.0609 1.37285 10.0609 1.21664 10.2171C1.06043 10.3733 1.06043 10.6266 1.21664 10.7828L3.21664 12.7828C3.29166 12.8578 3.3934 12.9 3.49949 12.9C3.60557 12.9 3.70731 12.8578 3.78233 12.7828L5.78233 10.7828C5.93854 10.6266 5.93854 10.3733 5.78233 10.2171C5.62612 10.0609 5.37285 10.0609 5.21664 10.2171L3.89949 11.5343L3.89949 3.46566L5.21664 4.78282C5.37285 4.93903 5.62612 4.93903 5.78233 4.78282C5.93854 4.62661 5.93854 4.37334 5.78233 4.21713L3.78233 2.21713ZM8.49998 3.99997C8.22383 3.99997 7.99998 4.22382 7.99998 4.49997C7.99998 4.77611 8.22383 4.99997 8.49998 4.99997H14.5C14.7761 4.99997 15 4.77611 15 4.49997C15 4.22382 14.7761 3.99997 14.5 3.99997H8.49998ZM7.99998 7.49997C7.99998 7.22382 8.22383 6.99997 8.49998 6.99997H14.5C14.7761 6.99997 15 7.22382 15 7.49997C15 7.77611 14.7761 7.99997 14.5 7.99997H8.49998C8.22383 7.99997 7.99998 7.77611 7.99998 7.49997ZM8.49998 9.99997C8.22383 9.99997 7.99998 10.2238 7.99998 10.5C7.99998 10.7761 8.22383 11 8.49998 11H14.5C14.7761 11 15 10.7761 15 10.5C15 10.2238 14.7761 9.99997 14.5 9.99997H8.49998Z"
    fill="currentColor"
  />
</svg>

<svg xmlns="http://www.w3.org/2000/svg" width="15" height="15" fill="none"><path fill="currentColor" fill-rule="evenodd" d="M3.782 2.217a.4.4 0 0 0-.565 0l-2 2a.4.4 0 0 0 .565.566L3.1 3.466v8.068l-1.317-1.317a.4.4 0 0 0-.565.566l2 2a.4.4 0 0 0 .565 0l2-2a.4.4 0 0 0-.565-.566L3.9 11.534V3.466l1.318 1.317a.4.4 0 0 0 .565-.566zM8.5 4a.5.5 0 1 0 0 1h6a.5.5 0 0 0 0-1zM8 7.5a.5.5 0 0 1 .5-.5h6a.5.5 0 0 1 0 1h-6a.5.5 0 0 1-.5-.5m.5 2.5a.5.5 0 1 0 0 1h6a.5.5 0 0 0 0-1z" clip-rule="evenodd"/></svg>
